build/redact/ListNumberedOutline.svg

<svg xmlns="http://www.w3.org/2000/svg" fill="none" viewBox="0 0 24 24" focusable="false"><path d="M0 0H24V24H0z"/><path fill="#74767B" fill-rule="evenodd" d="M3.66416 4.59387C3.30518 4.59387 3.01416 4.88489 3.01416 5.24387C3.01416 5.60286 3.30517 5.89387 3.66416 5.89387L3.93572 5.89387L3.93572 8.25608C3.93572 8.61507 4.22674 8.90608 4.58572 8.90608C4.94471 8.90608 5.23572 8.61507 5.23572 8.25608L5.23572 5.24387C5.23572 4.88489 4.94471 4.59387 4.58572 4.59387L3.66416 4.59387ZM8.66816 6.09998C8.30918 6.09998 8.01816 6.391 8.01816 6.74998C8.01816 7.10897 8.30918 7.39998 8.66816 7.39998L19.3502 7.39998C19.7092 7.39998 20.0002 7.10897 20.0002 6.74998C20.0002 6.391 19.7092 6.09998 19.3502 6.09998L8.66816 6.09998ZM8.66816 11.4C8.30918 11.4 8.01816 11.691 8.01816 12.05C8.01816 12.409 8.30918 12.7 8.66816 12.7L19.3502 12.7C19.7092 12.7 20.0002 12.409 20.0002 12.05C20.0002 11.691 19.7092 11.4 19.3502 11.4L8.66816 11.4ZM8.01816 17.35C8.01816 16.991 8.30918 16.7 8.66816 16.7L19.3502 16.7C19.7092 16.7 20.0002 16.991 20.0002 17.35C20.0002 17.709 19.7092 18 19.3502 18L8.66816 18C8.30918 18 8.01816 17.709 8.01816 17.35ZM2.97412 10.5816C2.97412 10.2226 3.26514 9.93161 3.62412 9.93161L4.77575 9.93161C5.5405 9.93161 6.16045 10.5516 6.16045 11.3163C6.16045 11.6967 6.00397 12.0603 5.72776 12.3218L5.25609 12.7684L5.60024 12.7684C5.95922 12.7684 6.25024 13.0594 6.25024 13.4184C6.25024 13.7774 5.95922 14.0684 5.60024 14.0684L3.62412 14.0684C3.35798 14.0684 3.11873 13.9062 3.02026 13.6589C2.92178 13.4117 2.98397 13.1294 3.17723 12.9464L4.83398 11.3778C4.85088 11.3618 4.86045 11.3396 4.86045 11.3163C4.86045 11.2695 4.82253 11.2316 4.77575 11.2316L3.62412 11.2316C3.26514 11.2316 2.97412 10.9406 2.97412 10.5816ZM5.5817 15.1855L3.57139 15.1855C3.2124 15.1855 2.92139 15.4765 2.92139 15.8355C2.92139 16.1945 3.2124 16.4855 3.57139 16.4855L4.31506 16.4855L4.15563 16.7076C4.0135 16.9057 3.9941 17.1666 4.10539 17.3834C4.21668 17.6003 4.43994 17.7367 4.68369 17.7367L4.7021 17.7367C4.83306 17.7367 4.93962 17.8421 4.941 17.9731C4.94239 18.106 4.83503 18.2145 4.7021 18.2145L3.57139 18.2145C3.2124 18.2145 2.92139 18.5055 2.92139 18.8645C2.92139 19.2235 3.2124 19.5145 3.57139 19.5145L4.7021 19.5145C5.55835 19.5145 6.24994 18.8156 6.24092 17.9594C6.23601 17.4924 6.02352 17.0759 5.6917 16.797L6.10976 16.2145C6.25189 16.0165 6.27129 15.7556 6.16 15.5388C6.04871 15.3219 5.82545 15.1855 5.5817 15.1855Z"/></svg>

<svg xmlns="http://www.w3.org/2000/svg" fill="none" viewBox="0 0 24 24" focusable="false"><path fill="#74767B" fill-rule="evenodd" d="M3.66 4.59c-.36 0-.65.29-.65.65s.29.65.65.65h.27v2.36c0 .36.29.65.65.65s.65-.29.65-.65V5.24c0-.36-.29-.65-.65-.65zm5 1.5c-.36 0-.65.3-.65.65 0 .36.29.65.65.65h10.69c.35 0 .65-.29.65-.65 0-.35-.3-.65-.65-.65zm0 5.31c-.36 0-.65.29-.65.65 0 .35.29.65.65.65h10.69c.35 0 .65-.3.65-.65 0-.36-.3-.65-.65-.65zm-.65 5.95c0-.36.29-.65.65-.65h10.69c.35 0 .65.29.65.65 0 .35-.3.65-.65.65H8.66c-.36 0-.65-.3-.65-.65m-5.04-6.77c0-.36.29-.65.65-.65h1.15c.77 0 1.39.62 1.39 1.38 0 .38-.16.75-.44 1.01l-.47.44h.35c.35 0 .65.29.65.65s-.3.65-.65.65H3.62a.63.63 0 0 1-.6-.41c-.1-.24-.04-.53.15-.71l1.66-1.57c.02-.01.03-.04.03-.06 0-.05-.04-.08-.09-.08H3.62c-.36 0-.65-.29-.65-.65m2.61 4.6H3.57c-.36 0-.65.29-.65.65s.29.65.65.65h.74l-.16.22c-.14.2-.16.46-.05.68s.33.35.58.35h.02c.13 0 .23.11.24.24 0 .13-.11.24-.24.24H3.57c-.36 0-.65.29-.65.65s.29.65.65.65H4.7c.85 0 1.55-.7 1.54-1.56-.01-.46-.22-.88-.55-1.16l.41-.58c.15-.2.17-.46.05-.68a.65.65 0 0 0-.57-.35"/></svg>
